icons/networkmapper.svg

<?xml version="1.0" encoding="UTF-8" standalone="no"?>
<svg
   xmlns:dc="http://purl.org/dc/elements/1.1/"
   xmlns:cc="http://creativecommons.org/ns#"
   xmlns:rdf="http://www.w3.org/1999/02/22-rdf-syntax-ns#"
   xmlns:svg="http://www.w3.org/2000/svg"
   xmlns="http://www.w3.org/2000/svg"
   xmlns:sodipodi="http://sodipodi.sourceforge.net/DTD/sodipodi-0.dtd"
   xmlns:inkscape="http://www.inkscape.org/namespaces/inkscape"
   viewBox="0 0 48 48"
   version="1.1"
   id="svg8"
   sodipodi:docname="networkmapper.svg"
   inkscape:version="1.0.2 (e86c870879, 2021-01-15)">
  <style
     id="style11114" />
  <metadata
     id="metadata12">
    <rdf:RDF>
      <cc:Work
         rdf:about="">
        <dc:format>image/svg+xml</dc:format>
        <dc:type
           rdf:resource="http://purl.org/dc/dcmitype/StillImage" />
        <dc:title></dc:title>
      </cc:Work>
    </rdf:RDF>
  </metadata>
  <sodipodi:namedview
     pagecolor="#595959"
     bordercolor="#666666"
     borderopacity="1"
     objecttolerance="10"
     gridtolerance="10"
     guidetolerance="10"
     inkscape:pageopacity="0"
     inkscape:pageshadow="2"
     inkscape:window-width="3840"
     inkscape:window-height="2096"
     id="namedview10"
     showgrid="false"
     showguides="true"
     inkscape:guide-bbox="true"
     inkscape:zoom="37.314874"
     inkscape:cx="24"
     inkscape:cy="24"
     inkscape:window-x="0"
     inkscape:window-y="27"
     inkscape:window-maximized="1"
     inkscape:current-layer="svg8"
     inkscape:document-rotation="0" />
  <defs
     id="defs4">
    <style
       id="style2">.a{fill:none;stroke:#fff;stroke-linecap:round;stroke-linejoin:round;}</style>
  </defs>
  <path
     style="fill:none;fill-opacity:1;stroke:#ffffff;stroke-width:0.999999;stroke-linecap:round;stroke-linejoin:round;stroke-miterlimit:4;stroke-dasharray:none;stroke-dashoffset:0;stroke-opacity:0.995205"
     id="path9226"
     sodipodi:type="arc"
     sodipodi:cx="24.00102"
     sodipodi:cy="23.970718"
     sodipodi:rx="3.6535721"
     sodipodi:ry="3.6583371"
     sodipodi:start="5.2132075"
     sodipodi:end="4.2660461"
     sodipodi:arc-type="arc"
     d="m 25.75526,20.761662 a 3.6535721,3.6583371 0 0 1 1.772724,4.163777 3.6535721,3.6583371 0 0 1 -3.626467,2.70226 3.6535721,3.6583371 0 0 1 -3.474143,-2.895965 3.6535721,3.6583371 0 0 1 1.99651,-4.060952"
     sodipodi:open="true" />
  <path
     style="fill:none;fill-opacity:1;stroke:#ffffff;stroke-width:0.999999;stroke-linecap:round;stroke-linejoin:round;stroke-miterlimit:4;stroke-dasharray:none;stroke-dashoffset:0;stroke-opacity:0.995205"
     id="path9228"
     sodipodi:type="arc"
     sodipodi:cx="24.00102"
     sodipodi:cy="23.970718"
     sodipodi:rx="9.5703459"
     sodipodi:ry="9.5828276"
     sodipodi:start="5.4977871"
     sodipodi:end="4.5471629"
     sodipodi:open="true"
     sodipodi:arc-type="arc"
     d="m 30.768277,17.194636 a 9.5703459,9.5828276 0 0 1 1.402972,11.766445 9.5703459,9.5828276 0 0 1 -11.090529,4.135434 9.5703459,9.5828276 0 0 1 -6.624953,-9.819274 9.5703459,9.5828276 0 0 1 7.971168,-8.758844" />
  <path
     style="fill:none;fill-opacity:1;stroke:#ffffff;stroke-width:0.999999;stroke-linecap:round;stroke-linejoin:round;stroke-miterlimit:4;stroke-dasharray:none;stroke-dashoffset:0;stroke-opacity:0.995205"
     id="path9230"
     sodipodi:type="arc"
     sodipodi:cx="24.00102"
     sodipodi:cy="23.970718"
     sodipodi:rx="12.708549"
     sodipodi:ry="12.725122"
     sodipodi:start="5.4977871"
     sodipodi:end="4.5877639"
     sodipodi:open="true"
     sodipodi:arc-type="arc"
     d="M 32.987321,14.972698 A 12.708549,12.725122 0 0 1 34.782607,30.707389 12.708549,12.725122 0 0 1 19.878257,36.007628 12.708549,12.725122 0 0 1 11.359669,22.663857 12.708549,12.725122 0 0 1 22.421313,11.344288" />
  <path
     style="fill:none;fill-opacity:1;stroke:#ffffff;stroke-width:0.999999;stroke-linecap:round;stroke-linejoin:round;stroke-miterlimit:4;stroke-dasharray:none;stroke-dashoffset:0;stroke-opacity:0.995205"
     id="path9232"
     sodipodi:type="arc"
     sodipodi:cx="24.00102"
     sodipodi:cy="23.970718"
     sodipodi:rx="18.462198"
     sodipodi:ry="18.486277"
     sodipodi:start="5.4977871"
     sodipodi:end="4.6267984"
     sodipodi:open="true"
     sodipodi:arc-type="arc"
     d="M 37.055765,10.898946 A 18.462198,18.486277 0 0 1 39.567723,33.909918 18.462198,18.486277 0 0 1 17.672042,41.336832 18.462198,18.486277 0 0 1 5.6998122,21.53474 18.462198,18.486277 0 0 1 22.422759,5.5521133" />
  <path
     style="fill:none;fill-opacity:1;stroke:#ffffff;stroke-width:0.999999;stroke-linecap:round;stroke-linejoin:round;stroke-miterlimit:4;stroke-dasharray:none;stroke-dashoffset:0;stroke-opacity:0.995205"
     id="path9234"
     sodipodi:type="arc"
     sodipodi:cx="24.00102"
     sodipodi:cy="23.970718"
     sodipodi:rx="21.499779"
     sodipodi:ry="21.527819"
     sodipodi:start="5.4977871"
     sodipodi:end="4.6388451"
     sodipodi:open="true"
     sodipodi:arc-type="arc"
     d="M 39.203659,8.7482511 A 21.499779,21.527819 0 0 1 42.094013,35.599826 21.499779,21.527819 0 0 1 16.509218,44.149256 21.499779,21.527819 0 0 1 2.7151857,20.94126 21.499779,21.527819 0 0 1 22.421268,2.5010922" />
  <path
     style="fill:none;stroke:#ffffff;stroke-width:0.999999px;stroke-linecap:round;stroke-linejoin:round;stroke-opacity:1"
     d="m 30.768277,17.194636 2.219044,-2.221938"
     id="path9236" />
  <path
     style="fill:none;stroke:#ffffff;stroke-width:0.999999px;stroke-linecap:round;stroke-linejoin:round;stroke-opacity:1"
     d="M 37.055766,10.898946 39.203659,8.7482513"
     id="path9252" />
  <path
     style="fill:none;stroke:#ffffff;stroke-width:0.999999px;stroke-linecap:round;stroke-linejoin:round;stroke-opacity:1"
     d="m 22.423884,20.670782 0.003,-6.152384"
     id="path9256" />
  <path
     style="fill:none;stroke:#ffffff;stroke-width:0.999999px;stroke-linecap:round;stroke-linejoin:round;stroke-opacity:1"
     d="m 22.421313,11.344287 0.0014,-5.7921737"
     id="path9258" />
  <path
     style="fill:none;stroke:#ffffff;stroke-width:0.999999px;stroke-linecap:round;stroke-linejoin:round;stroke-opacity:1"
     d="M 25.75526,20.761662 V 2.4999995 l -3.333992,0.00109"
     id="path9260" />
</svg>

<?xml version="1.0" encoding="UTF-8"?>
<svg version="1.1" viewBox="0 0 48 48" xmlns="http://www.w3.org/2000/svg">
    <style/>
    <defs>
        <style>.a{fill:none;stroke:#fff;stroke-linecap:round;stroke-linejoin:round;}</style>
    </defs>
    <path d="m25.755 20.762a3.6536 3.6583 0 0 1 1.7727 4.1638 3.6536 3.6583 0 0 1-3.6265 2.7023 3.6536 3.6583 0 0 1-3.4741-2.896 3.6536 3.6583 0 0 1 1.9965-4.061" fill="none" stroke="#fff" stroke-linecap="round" stroke-linejoin="round" stroke-opacity=".9952"/>
    <path d="m30.768 17.195a9.5703 9.5828 0 0 1 1.403 11.766 9.5703 9.5828 0 0 1-11.091 4.1354 9.5703 9.5828 0 0 1-6.625-9.8193 9.5703 9.5828 0 0 1 7.9712-8.7588" fill="none" stroke="#fff" stroke-linecap="round" stroke-linejoin="round" stroke-opacity=".9952"/>
    <path d="m32.987 14.973a12.709 12.725 0 0 1 1.7953 15.735 12.709 12.725 0 0 1-14.904 5.3002 12.709 12.725 0 0 1-8.5186-13.344 12.709 12.725 0 0 1 11.062-11.32" fill="none" stroke="#fff" stroke-linecap="round" stroke-linejoin="round" stroke-opacity=".9952"/>
    <path d="m37.056 10.899a18.462 18.486 0 0 1 2.512 23.011 18.462 18.486 0 0 1-21.896 7.4269 18.462 18.486 0 0 1-11.972-19.802 18.462 18.486 0 0 1 16.723-15.983" fill="none" stroke="#fff" stroke-linecap="round" stroke-linejoin="round" stroke-opacity=".9952"/>
    <path d="m39.204 8.7483a21.5 21.528 0 0 1 2.8904 26.852 21.5 21.528 0 0 1-25.585 8.5494 21.5 21.528 0 0 1-13.794-23.208 21.5 21.528 0 0 1 19.706-18.44" fill="none" stroke="#fff" stroke-linecap="round" stroke-linejoin="round" stroke-opacity=".9952"/>
    <path d="m30.768 17.195 2.219-2.2219" fill="none" stroke="#fff" stroke-linecap="round" stroke-linejoin="round" stroke-width="1px"/>
    <path d="m37.056 10.899 2.1479-2.1507" fill="none" stroke="#fff" stroke-linecap="round" stroke-linejoin="round" stroke-width="1px"/>
    <path d="m22.424 20.671 3e-3 -6.1524" fill="none" stroke="#fff" stroke-linecap="round" stroke-linejoin="round" stroke-width="1px"/>
    <path d="m22.421 11.344 0.0014-5.7922" fill="none" stroke="#fff" stroke-linecap="round" stroke-linejoin="round" stroke-width="1px"/>
    <path d="m25.755 20.762v-18.262l-3.334 0.00109" fill="none" stroke="#fff" stroke-linecap="round" stroke-linejoin="round" stroke-width="1px"/>
</svg>
